static/images/icon-1.svg

<?xml version="1.0" encoding="UTF-8"?>
<svg width="52px" height="52px" viewBox="0 0 52 52" version="1.1" xmlns="http://www.w3.org/2000/svg" xmlns:xlink="http://www.w3.org/1999/xlink">
    <title>Shape</title>
    <g id="Page-1" stroke="none" stroke-width="1" fill="none" fill-rule="evenodd">
        <path d="M26,0 C11.6405565,0 0,11.6405565 0,26 C0,40.3594435 11.6405565,52 26,52 C40.3594435,52 52,40.3594435 52,26 C52,11.6405565 40.3594435,0 26,0 Z M26,5.03225806 C37.5880323,5.03225806 46.9677419,14.4101855 46.9677419,26 C46.9677419,37.5880323 37.5898145,46.9677419 26,46.9677419 C14.4119677,46.9677419 5.03225806,37.5898145 5.03225806,26 C5.03225806,14.4119677 14.4101855,5.03225806 26,5.03225806 M40.6988065,18.6892823 L38.3361613,16.3075565 C37.846879,15.8142903 37.0503145,15.8110403 36.5570484,16.3004274 L21.7378871,31.0004919 L15.469371,24.681129 C14.9800887,24.1878629 14.1835242,24.1846129 13.6902581,24.6738952 L11.3084274,27.0365403 C10.8151613,27.5258226 10.8119113,28.3223871 11.3012984,28.8157581 L20.8186613,38.4101774 C21.3079435,38.9034435 22.1045081,38.9066935 22.5977742,38.4173065 L40.6917823,20.4685 C41.1849435,19.9791129 41.1880887,19.1825484 40.6988065,18.6892823 L40.6988065,18.6892823 Z" id="Shape" fill="#17DE74" fill-rule="nonzero"></path>
    </g>
</svg>

<svg width="52" height="52" viewBox="0 0 52 52" xmlns="http://www.w3.org/2000/svg"><path d="M26 0C11.64 0 0 11.64 0 26s11.64 26 26 26 26-11.64 26-26S40.36 0 26 0zm0 5.032c11.588 0 20.968 9.378 20.968 20.968 0 11.588-9.378 20.968-20.968 20.968C14.412 46.968 5.032 37.59 5.032 26 5.032 14.412 14.41 5.032 26 5.032M40.699 18.69l-2.363-2.381a1.258 1.258 0 00-1.779-.008L21.737 31l-6.268-6.319a1.258 1.258 0 00-1.779-.007l-2.382 2.363a1.258 1.258 0 00-.007 1.779l9.518 9.594c.489.493 1.286.497 1.779.007l18.094-17.949c.493-.489.496-1.285.007-1.779z" fill="#17DE74" fill-rule="nonzero"/></svg>
